ummisco.gama.ui.shared/svg/branding/ummisco.gama.feature.core.ui.svg

<svg xmlns="http://www.w3.org/2000/svg" xmlns:xl="http://www.w3.org/1999/xlink" width="48" height="48" version="1.1" viewBox="-772 -3145.185 48 48"><g id="ICONES" fill="none" fill-opacity="1" stroke="none" stroke-dasharray="none" stroke-opacity="1"><title>ICONES</title><g id="ICONES_Calque_1"><title>Calque 1</title><g id="Group_4261"><g id="Graphic_3964"><path fill="#fff" d="M -769 -3145.1854 L -727 -3145.1854 C -725.34315 -3145.1854 -724 -3143.8423 -724 -3142.1854 L -724 -3100.1854 C -724 -3098.5286 -725.34315 -3097.1854 -727 -3097.1854 L -769 -3097.1854 C -770.6569 -3097.1854 -772 -3098.5286 -772 -3100.1854 L -772 -3142.1854 C -772 -3143.8423 -770.6569 -3145.1854 -769 -3145.1854 Z"/></g><g id="Group_3957"><g id="Graphic_3963"><path fill="#efb54f" fill-opacity=".252" d="M -770.604 -3122.734 L -767.575 -3122.734 C -767.2233 -3127.2347 -765.3262 -3131.6373 -761.8837 -3135.0797 C -754.2153 -3142.7482 -741.78225 -3142.7482 -734.1138 -3135.0797 C -730.6713 -3131.6373 -728.7742 -3127.2347 -728.4225 -3122.734 L -725.3935 -3122.734 C -725.7505 -3128.0092 -727.9452 -3133.1835 -731.97765 -3137.216 C -740.8259 -3146.064 -755.17165 -3146.064 -764.0199 -3137.216 C -768.0523 -3133.1835 -770.247 -3128.0092 -770.604 -3122.734 Z"/><path stroke="#efb64f" stroke-linecap="round" stroke-linejoin="round" stroke-width="0" d="M -770.604 -3122.734 L -767.575 -3122.734 C -767.2233 -3127.2347 -765.3262 -3131.6373 -761.8837 -3135.0797 C -754.2153 -3142.7482 -741.78225 -3142.7482 -734.1138 -3135.0797 C -730.6713 -3131.6373 -728.7742 -3127.2347 -728.4225 -3122.734 L -725.3935 -3122.734 C -725.7505 -3128.0092 -727.9452 -3133.1835 -731.97765 -3137.216 C -740.8259 -3146.064 -755.17165 -3146.064 -764.0199 -3137.216 C -768.0523 -3133.1835 -770.247 -3128.0092 -770.604 -3122.734 Z"/></g><g id="Graphic_3962"><path fill="#d3673a" fill-opacity=".249" d="M -764.9256 -3122.6968 L -761.8903 -3122.6968 C -761.5613 -3125.7568 -760.2241 -3128.729 -757.8784 -3131.0745 C -752.422 -3136.531 -743.5755 -3136.531 -738.1191 -3131.0745 C -735.7735 -3128.729 -734.4362 -3125.7568 -734.1072 -3122.6968 L -731.0719 -3122.6968 C -731.4102 -3126.5324 -733.0472 -3130.275 -735.9829 -3133.2106 C -742.6191 -3139.8468 -753.3784 -3139.8468 -760.0146 -3133.2106 C -762.9503 -3130.275 -764.5873 -3126.5324 -764.9256 -3122.6968 Z"/><path stroke="#d2673a" stroke-linecap="round" stroke-linejoin="round" stroke-width="0" d="M -764.9256 -3122.6968 L -761.8903 -3122.6968 C -761.5613 -3125.7568 -760.2241 -3128.729 -757.8784 -3131.0745 C -752.422 -3136.531 -743.5755 -3136.531 -738.1191 -3131.0745 C -735.7735 -3128.729 -734.4362 -3125.7568 -734.1072 -3122.6968 L -731.0719 -3122.6968 C -731.4102 -3126.5324 -733.0472 -3130.275 -735.9829 -3133.2106 C -742.6191 -3139.8468 -753.3784 -3139.8468 -760.0146 -3133.2106 C -762.9503 -3130.275 -764.5873 -3126.5324 -764.9256 -3122.6968 Z"/></g><g id="Graphic_3961"><path fill="#3570a0" fill-opacity=".25" d="M -759.223 -3122.734 L -756.1634 -3122.734 C -755.8655 -3124.322 -755.1021 -3125.8403 -753.8732 -3127.0692 C -750.6288 -3130.3136 -745.3687 -3130.3136 -742.12435 -3127.0692 C -740.8954 -3125.8403 -740.132 -3124.322 -739.8341 -3122.734 L -736.7745 -3122.734 C -737.0973 -3125.101 -738.1686 -3127.3857 -739.9882 -3129.2053 C -744.4123 -3133.6295 -751.5852 -3133.6295 -756.0093 -3129.2053 C -757.829 -3127.3857 -758.9002 -3125.101 -759.223 -3122.734 Z"/><path stroke="#3770a0" stroke-linecap="round" stroke-linejoin="round" stroke-width="0" d="M -759.223 -3122.734 L -756.1634 -3122.734 C -755.8655 -3124.322 -755.1021 -3125.8403 -753.8732 -3127.0692 C -750.6288 -3130.3136 -745.3687 -3130.3136 -742.12435 -3127.0692 C -740.8954 -3125.8403 -740.132 -3124.322 -739.8341 -3122.734 L -736.7745 -3122.734 C -737.0973 -3125.101 -738.1686 -3127.3857 -739.9882 -3129.2053 C -744.4123 -3133.6295 -751.5852 -3133.6295 -756.0093 -3129.2053 C -757.829 -3127.3857 -758.9002 -3125.101 -759.223 -3122.734 Z"/></g><g id="Graphic_3960"><path fill="#d3673a" d="M -764.9456 -3122.734 L -761.9097 -3122.734 C -761.5758 -3125.7844 -760.2395 -3128.746 -757.9008 -3131.0848 C -755.1525 -3133.833 -751.5442 -3135.197 -747.9422 -3135.177 C -746.0555 -3135.1663 -744.1705 -3134.776 -742.4117 -3134.0057 L -741.23095 -3136.7874 C -743.3678 -3137.718 -745.657 -3138.188 -747.9478 -3138.198 C -752.321 -3138.2167 -756.7002 -3136.5577 -760.0369 -3133.221 C -762.9658 -3130.292 -764.602 -3126.56 -764.9456 -3122.734 Z"/><path stroke="#d2673a" stroke-linecap="round" stroke-linejoin="round" stroke-width="0" d="M -764.9456 -3122.734 L -761.9097 -3122.734 C -761.5758 -3125.7844 -760.2395 -3128.746 -757.9008 -3131.0848 C -755.1525 -3133.833 -751.5442 -3135.197 -747.9422 -3135.177 C -746.0555 -3135.1663 -744.1705 -3134.776 -742.4117 -3134.0057 L -741.23095 -3136.7874 C -743.3678 -3137.718 -745.657 -3138.188 -747.9478 -3138.198 C -752.321 -3138.2167 -756.7002 -3136.5577 -760.0369 -3133.221 C -762.9658 -3130.292 -764.602 -3126.56 -764.9456 -3122.734 Z"/></g><g id="Graphic_3959"><path fill="#3570a0" d="M -759.1785 -3122.6968 L -756.1229 -3122.6968 C -755.83565 -3124.3136 -755.0674 -3125.8616 -753.8182 -3127.111 C -752.31135 -3128.6177 -750.3696 -3129.4247 -748.397 -3129.5318 L -748.397 -3132.556 C -751.1434 -3132.4468 -753.8576 -3131.3438 -755.9544 -3129.247 C -757.7942 -3127.407 -758.8689 -3125.092 -759.1785 -3122.6968 Z"/><path stroke="#3770a0" stroke-linecap="round" stroke-linejoin="round" stroke-width="0" d="M -759.1785 -3122.6968 L -756.1229 -3122.6968 C -755.83565 -3124.3136 -755.0674 -3125.8616 -753.8182 -3127.111 C -752.31135 -3128.6177 -750.3696 -3129.4247 -748.397 -3129.5318 L -748.397 -3132.556 C -751.1434 -3132.4468 -753.8576 -3131.3438 -755.9544 -3129.247 C -757.7942 -3127.407 -758.8689 -3125.092 -759.1785 -3122.6968 Z"/></g><g id="Graphic_3958"><path fill="#efb54f" d="M -770.6065 -3122.6968 L -767.5779 -3122.6968 C -767.2337 -3127.2104 -765.3357 -3131.628 -761.8837 -3135.0797 C -754.2153 -3142.7482 -741.78225 -3142.7482 -734.1138 -3135.0797 C -733.2498 -3134.2158 -732.4832 -3133.2913 -731.8139 -3132.32 L -729.19 -3133.835 C -729.9934 -3135.0277 -730.9226 -3136.161 -731.97765 -3137.216 C -740.8259 -3146.064 -755.17165 -3146.064 -764.0199 -3137.216 C -768.0618 -3133.174 -770.2573 -3127.985 -770.6065 -3122.6968 Z"/><path stroke="#efb64f" stroke-linecap="round" stroke-linejoin="round" stroke-width="0" d="M -770.6065 -3122.6968 L -767.5779 -3122.6968 C -767.2337 -3127.2104 -765.3357 -3131.628 -761.8837 -3135.0797 C -754.2153 -3142.7482 -741.78225 -3142.7482 -734.1138 -3135.0797 C -733.2498 -3134.2158 -732.4832 -3133.2913 -731.8139 -3132.32 L -729.19 -3133.835 C -729.9934 -3135.0277 -730.9226 -3136.161 -731.97765 -3137.216 C -740.8259 -3146.064 -755.17165 -3146.064 -764.0199 -3137.216 C -768.0618 -3133.174 -770.2573 -3127.985 -770.6065 -3122.6968 Z"/></g></g><g id="Group_4095"><title/><g id="Graphic_4089"><path fill="#3770a1" d="M -751.3525 -3114.5344 L -752.6305 -3114.5344 C -752.6395 -3114.3544 -752.6575 -3114.1744 -752.7295 -3114.0394 C -752.8015 -3113.8864 -752.9275 -3113.7874 -753.1615 -3113.7874 C -753.3955 -3113.7874 -753.5215 -3113.8954 -753.5935 -3114.0394 C -753.7465 -3114.3364 -753.7645 -3115.1374 -753.7645 -3115.9114 C -753.7645 -3116.6854 -753.7465 -3117.4864 -753.5935 -3117.7834 C -753.5215 -3117.9274 -753.3955 -3118.0354 -753.1615 -3118.0354 C -752.9275 -3118.0354 -752.8015 -3117.9454 -752.7295 -3117.7924 C -752.6575 -3117.6574 -752.6395 -3117.4774 -752.6305 -3117.2974 L -751.3525 -3117.2974 C -751.3795 -3117.9094 -751.5955 -3118.4134 -751.9285 -3118.7284 C -752.2525 -3119.0344 -752.6305 -3119.1874 -753.1615 -3119.1874 C -753.8545 -3119.1874 -754.2775 -3118.8994 -754.5655 -3118.5394 C -755.0155 -3117.9904 -755.0425 -3117.1444 -755.0425 -3115.9114 C -755.0425 -3114.6784 -755.0155 -3113.8324 -754.5655 -3113.2834 C -754.2775 -3112.9234 -753.8545 -3112.6354 -753.1615 -3112.6354 C -752.6305 -3112.6354 -752.2525 -3112.7884 -751.9285 -3113.0944 C -751.5955 -3113.4094 -751.3795 -3113.9224 -751.3525 -3114.5344 Z"/></g><g id="Graphic_4090"><path fill="#3770a1" d="M -747.5815 -3115.1284 C -747.5815 -3115.7764 -747.6085 -3116.5864 -747.9145 -3117.0454 C -748.2295 -3117.5134 -748.6795 -3117.6214 -749.1925 -3117.6214 C -749.7055 -3117.6214 -750.1555 -3117.5134 -750.4705 -3117.0454 C -750.7765 -3116.5864 -750.8035 -3115.7764 -750.8035 -3115.1284 C -750.8035 -3114.4804 -750.7765 -3113.6704 -750.4705 -3113.2114 C -750.1555 -3112.7434 -749.7055 -3112.6354 -749.1925 -3112.6354 C -748.6795 -3112.6354 -748.2295 -3112.7434 -747.9145 -3113.2114 C -747.6085 -3113.6704 -747.5815 -3114.4804 -747.5815 -3115.1284 Z M -748.7875 -3115.1284 C -748.7875 -3114.5794 -748.7875 -3114.1024 -748.8775 -3113.9044 C -748.9405 -3113.7694 -749.0755 -3113.7154 -749.1925 -3113.7154 C -749.3095 -3113.7154 -749.4445 -3113.7694 -749.5075 -3113.9044 C -749.5975 -3114.1024 -749.5975 -3114.5794 -749.5975 -3115.1284 C -749.5975 -3115.6774 -749.5975 -3116.1544 -749.5075 -3116.3524 C -749.4445 -3116.4874 -749.3095 -3116.5414 -749.1925 -3116.5414 C -749.0755 -3116.5414 -748.9405 -3116.4874 -748.8775 -3116.3524 C -748.7875 -3116.1544 -748.7875 -3115.6774 -748.7875 -3115.1284 Z"/></g><g id="Graphic_4091"><path fill="#3770a1" d="M -744.4945 -3116.4334 L -744.4945 -3117.6214 C -744.7555 -3117.6214 -744.9985 -3117.5584 -745.2055 -3117.4594 C -745.4215 -3117.3514 -745.6015 -3117.1984 -745.7365 -3117.0274 L -745.7365 -3117.5494 L -746.8885 -3117.5494 L -746.8885 -3112.7074 L -745.6825 -3112.7074 L -745.6825 -3115.6594 C -745.6825 -3116.1454 -745.3405 -3116.4334 -744.9355 -3116.4334 Z"/></g><g id="Graphic_4092"><path fill="#3770a1" d="M -740.9215 -3114.7414 C -740.9215 -3115.8574 -740.9665 -3116.7484 -741.4075 -3117.2074 C -741.7495 -3117.5584 -742.1095 -3117.6214 -742.5325 -3117.6214 C -742.9375 -3117.6214 -743.3245 -3117.5584 -743.6665 -3117.2074 C -744.1075 -3116.7484 -744.1435 -3115.8574 -744.1435 -3115.1284 C -744.1435 -3114.3994 -744.1075 -3113.5084 -743.6665 -3113.0584 C -743.3245 -3112.7074 -742.9915 -3112.6354 -742.5325 -3112.6354 C -742.0285 -3112.6354 -741.6595 -3112.7524 -741.3895 -3113.0494 C -741.0745 -3113.3914 -740.9665 -3113.7964 -740.9485 -3114.2014 L -742.1545 -3114.2014 C -742.1545 -3114.1204 -742.1725 -3113.9764 -742.2175 -3113.8954 C -742.2805 -3113.7784 -742.3795 -3113.7154 -742.5325 -3113.7154 C -742.6855 -3113.7154 -742.7935 -3113.7964 -742.8475 -3113.9044 C -742.9195 -3114.0394 -742.9375 -3114.4174 -742.9375 -3114.7414 Z M -742.1275 -3115.6144 L -742.9375 -3115.6144 C -742.9375 -3116.0284 -742.9015 -3116.2624 -742.8475 -3116.3614 C -742.7845 -3116.4784 -742.6945 -3116.5414 -742.5325 -3116.5414 C -742.3705 -3116.5414 -742.2805 -3116.4784 -742.2175 -3116.3614 C -742.1635 -3116.2624 -742.1275 -3116.0284 -742.1275 -3115.6144 Z"/></g><g id="Graphic_4093"><path fill="#c92505" d="M -747.325 -3103.1654 L -747.325 -3107.8544 L -748.603 -3107.8544 L -748.603 -3103.1024 C -748.603 -3102.6884 -748.846 -3102.5264 -749.134 -3102.5264 C -749.422 -3102.5264 -749.665 -3102.6884 -749.665 -3103.1024 L -749.665 -3107.8544 L -750.943 -3107.8544 L -750.943 -3103.1654 C -750.943 -3102.6524 -750.772 -3102.2204 -750.466 -3101.9054 C -750.124 -3101.5544 -749.674 -3101.3744 -749.134 -3101.3744 C -748.594 -3101.3744 -748.144 -3101.5544 -747.802 -3101.9054 C -747.496 -3102.2204 -747.325 -3102.6524 -747.325 -3103.1654 Z"/></g><g id="Graphic_4094"><rect width="1.278" height="6.408" x="-746.38" y="-3107.854" fill="#c92505"/></g></g></g></g></g></svg>

<svg xmlns="http://www.w3.org/2000/svg" width="48" height="48" viewBox="-772 -3145.185 48 48"><g fill="none"><path fill="#fff" d="M-769-3145.185h42a3 3 0 0 1 3 3v42a3 3 0 0 1-3 3h-42a3 3 0 0 1-3-3v-42a3 3 0 0 1 3-3Z"/><path fill="#efb54f" fill-opacity=".252" d="M-770.604-3122.734h3.029a19.558 19.558 0 0 1 5.691-12.346c7.669-7.668 20.102-7.668 27.77 0a19.558 19.558 0 0 1 5.692 12.346h3.029a22.57 22.57 0 0 0-6.585-14.482c-8.848-8.848-23.194-8.848-32.042 0a22.57 22.57 0 0 0-6.584 14.482Z"/><path d="M-770.604-3122.734h3.029a19.558 19.558 0 0 1 5.691-12.346c7.669-7.668 20.102-7.668 27.77 0a19.558 19.558 0 0 1 5.692 12.346h3.029a22.57 22.57 0 0 0-6.585-14.482c-8.848-8.848-23.194-8.848-32.042 0a22.57 22.57 0 0 0-6.584 14.482Z"/><path fill="#d3673a" fill-opacity=".249" d="M-764.926-3122.697h3.036a13.913 13.913 0 0 1 4.012-8.378c5.456-5.456 14.303-5.456 19.759 0a13.914 13.914 0 0 1 4.012 8.378h3.035a16.924 16.924 0 0 0-4.91-10.514c-6.637-6.636-17.396-6.636-24.033 0a16.924 16.924 0 0 0-4.91 10.514Z"/><path d="M-764.926-3122.697h3.036a13.913 13.913 0 0 1 4.012-8.378c5.456-5.456 14.303-5.456 19.759 0a13.914 13.914 0 0 1 4.012 8.378h3.035a16.924 16.924 0 0 0-4.91-10.514c-6.637-6.636-17.396-6.636-24.033 0a16.924 16.924 0 0 0-4.91 10.514Z"/><path fill="#3570a0" fill-opacity=".25" d="M-759.223-3122.734h3.06a8.308 8.308 0 0 1 16.33 0h3.059a11.28 11.28 0 0 0-3.214-6.471c-4.424-4.425-11.597-4.425-16.021 0a11.279 11.279 0 0 0-3.214 6.471Z"/><path d="M-759.223-3122.734h3.06a8.308 8.308 0 0 1 16.33 0h3.059a11.28 11.28 0 0 0-3.214-6.471c-4.424-4.425-11.597-4.425-16.021 0a11.279 11.279 0 0 0-3.214 6.471Z"/><path fill="#d3673a" d="M-764.946-3122.734h3.036a13.914 13.914 0 0 1 4.01-8.35 13.93 13.93 0 0 1 9.958-4.093c1.886.01 3.772.401 5.53 1.171l1.181-2.781a17.012 17.012 0 0 0-6.717-1.411 16.94 16.94 0 0 0-12.089 4.977 16.925 16.925 0 0 0-4.909 10.487Z"/><path d="M-764.946-3122.734h3.036a13.914 13.914 0 0 1 4.01-8.35 13.93 13.93 0 0 1 9.958-4.093c1.886.01 3.772.401 5.53 1.171l1.181-2.781a17.012 17.012 0 0 0-6.717-1.411 16.94 16.94 0 0 0-12.089 4.977 16.925 16.925 0 0 0-4.909 10.487Z"/><path fill="#3570a0" d="M-759.178-3122.697h3.055a8.27 8.27 0 0 1 2.305-4.414 8.277 8.277 0 0 1 5.421-2.42v-3.025a11.288 11.288 0 0 0-7.557 3.309 11.28 11.28 0 0 0-3.225 6.55Z"/><path d="M-759.178-3122.697h3.055a8.27 8.27 0 0 1 2.305-4.414 8.277 8.277 0 0 1 5.421-2.42v-3.025a11.288 11.288 0 0 0-7.557 3.309 11.28 11.28 0 0 0-3.225 6.55Z"/><path fill="#efb54f" d="M-770.606-3122.697h3.028a19.559 19.559 0 0 1 5.694-12.383c7.669-7.668 20.102-7.668 27.77 0 .864.864 1.63 1.789 2.3 2.76l2.624-1.515a22.768 22.768 0 0 0-2.788-3.381c-8.848-8.848-23.194-8.848-32.042 0a22.57 22.57 0 0 0-6.587 14.52Z"/><path d="M-770.606-3122.697h3.028a19.559 19.559 0 0 1 5.694-12.383c7.669-7.668 20.102-7.668 27.77 0 .864.864 1.63 1.789 2.3 2.76l2.624-1.515a22.768 22.768 0 0 0-2.788-3.381c-8.848-8.848-23.194-8.848-32.042 0a22.57 22.57 0 0 0-6.587 14.52Z"/><path fill="#3770a1" d="M-751.352-3114.534h-1.279c-.009.18-.027.36-.099.495-.072.153-.197.252-.432.252-.233 0-.36-.108-.431-.252-.154-.297-.172-1.098-.172-1.872s.019-1.575.172-1.872c.072-.144.197-.252.431-.252.235 0 .36.09.433.243.072.135.09.315.099.495h1.278c-.028-.612-.244-1.116-.577-1.431-.324-.306-.702-.46-1.233-.46-.692 0-1.115.289-1.404.649-.45.549-.476 1.395-.476 2.628s.027 2.079.476 2.628c.288.36.712.648 1.404.648.532 0 .91-.153 1.234-.46.332-.314.548-.827.576-1.44ZM-747.582-3115.128c0-.648-.027-1.458-.332-1.917-.316-.468-.765-.576-1.279-.576-.513 0-.962.108-1.278.576-.306.459-.332 1.269-.332 1.917 0 .648.026 1.458.332 1.917.316.468.765.576 1.279.576.513 0 .962-.108 1.278-.576.305-.46.332-1.27.332-1.917Zm-1.206 0c0 .549 0 1.026-.09 1.224a.34.34 0 0 1-.314.189.34.34 0 0 1-.316-.19c-.09-.197-.09-.674-.09-1.223 0-.55 0-1.026.09-1.224a.34.34 0 0 1 .316-.19.34.34 0 0 1 .314.19c.09.198.09.675.09 1.224ZM-744.495-3116.433v-1.188c-.26 0-.504.063-.71.162a1.58 1.58 0 0 0-.531.432v-.522h-1.153v4.842h1.207v-2.952c0-.486.341-.774.746-.774ZM-740.922-3114.741c0-1.116-.044-2.007-.486-2.466-.341-.351-.702-.414-1.125-.414-.404 0-.791.063-1.134.414-.44.459-.476 1.35-.476 2.079 0 .729.036 1.62.476 2.07.343.35.676.423 1.135.423.504 0 .873-.117 1.143-.414.315-.342.423-.747.44-1.152h-1.206a.746.746 0 0 1-.063.306c-.063.117-.162.18-.315.18a.34.34 0 0 1-.314-.19c-.072-.134-.09-.512-.09-.836Zm-1.206-.873h-.81c0-.414.036-.648.09-.747.063-.117.154-.18.315-.18.163 0 .253.063.316.18.053.099.09.333.09.747Z"/><path fill="#c92505" d="M-747.325-3103.165v-4.69h-1.278v4.753c0 .414-.243.576-.531.576-.288 0-.531-.162-.531-.576v-4.752h-1.278v4.689c0 .513.171.945.477 1.26.342.35.792.53 1.332.53s.99-.18 1.332-.53c.306-.315.477-.747.477-1.26ZM-746.38-3107.854h1.278v6.408h-1.278z"/></g></svg>
